X:16
T:Quand on a quitt\'e. [FJ16]
S:Festin joyeux.  Music page 9.
Z:transcribed by Eric Conrad, 2021.
N:NB The meter is given simply as "2"
N:NB In the MS, the G is the bottom line of the staff
N:NB Repeat marks were added at beginning and end.
N:NB The MS repeat mark is 4 vertical dots enclosed by bars on both sides.
N:NB The plus signs seem to indicate some kind of roll or trill.
M:2/2
L:1/4
% K:Ddor clef=treble1 % MS has G on bottom line
K:Ddor % no sharps or flats, ending on D, with raised seventh (C#), missing sixth (B)
|: d>^cd"^+"e | f2g>a | "^+"e2e2 | d>^cde | f2g>a | "^+"e4 :|
|: e>f"^+"f>e | d2e>f | "^+"^c2d2 | e>fe^c | d>ee>d | d4 :|


